public/filterSVGs/toolbox.svg

<svg height="32" viewBox="0 0 256 256" width="32" xmlns="http://www.w3.org/2000/svg"><path d="m224 64h-48v-8a24 24 0 0 0 -24-24h-48a24 24 0 0 0 -24 24v8h-48a16 16 0 0 0 -16 16v112a16 16 0 0 0 16 16h192a16 16 0 0 0 16-16v-112a16 16 0 0 0 -16-16zm-128-8a8 8 0 0 1 8-8h48a8 8 0 0 1 8 8v8h-64zm128 24v32h-32v-8a8 8 0 0 0 -16 0v8h-96v-8a8 8 0 0 0 -16 0v8h-32v-32zm0 112h-192v-64h32v8a8 8 0 0 0 16 0v-8h96v8a8 8 0 0 0 16 0v-8h32z"/></svg>

<svg xmlns="http://www.w3.org/2000/svg" width="32" height="32" fill="#000000" viewBox="0 0 256 256"><path d="M224,64H176V56a24,24,0,0,0-24-24H104A24,24,0,0,0,80,56v8H32A16,16,0,0,0,16,80V192a16,16,0,0,0,16,16H224a16,16,0,0,0,16-16V80A16,16,0,0,0,224,64ZM96,56a8,8,0,0,1,8-8h48a8,8,0,0,1,8,8v8H96ZM224,80v32H192v-8a8,8,0,0,0-16,0v8H80v-8a8,8,0,0,0-16,0v8H32V80Zm0,112H32V128H64v8a8,8,0,0,0,16,0v-8h96v8a8,8,0,0,0,16,0v-8h32v64Z"></path></svg>
